svgs/sharp-solid/building-user.svg

<svg xmlns="http://www.w3.org/2000/svg" viewBox="0 0 640 512"><!--! Font Awesome Pro 6.6.0 by @fontawesome - https://fontawesome.com License - https://fontawesome.com/license (Commercial License) Copyright 2024 Fonticons, Inc. --><path d="M384 0L0 0 0 512l144 0 0-128 96 0 0 128 77.1 0L384 359 384 0zM64 224l64 0 0 64-64 0 0-64zm160 0l0 64-64 0 0-64 64 0zm32 0l64 0 0 64-64 0 0-64zM128 96l0 64-64 0 0-64 64 0zm32 0l64 0 0 64-64 0 0-64zm160 0l0 64-64 0 0-64 64 0zM576 272a80 80 0 1 0 -160 0 80 80 0 1 0 160 0zm8 112l-176 0L352 512l288 0L584 384z"/></svg>

<svg xmlns="http://www.w3.org/2000/svg" viewBox="0 0 640 512"><!--! Font Awesome Pro 6.4.0 by @fontawesome - https://fontawesome.com License - https://fontawesome.com/license (Commercial License) Copyright 2023 Fonticons, Inc. --><path d="M384 0H0V512H144V384h96V512h77.1L384 359V0zM64 224h64v64H64V224zm160 0v64H160V224h64zm32 0h64v64H256V224zM128 96v64H64V96h64zm32 0h64v64H160V96zm160 0v64H256V96h64zM576 272a80 80 0 1 0 -160 0 80 80 0 1 0 160 0zm8 112H408L352 512H640L584 384z"/></svg>
